icons/filled/alarm.svg

<svg xmlns="http://www.w3.org/2000/svg" width="24" height="24" viewBox="0 0 24 24" fill="currentColor"><path d="M16 6.072a8 8 0 1 1 -11.995 7.213l-.005 -.285l.005 -.285a8 8 0 0 1 11.995 -6.643zm-4 2.928a1 1 0 0 0 -1 1v3l.007 .117a1 1 0 0 0 .993 .883h2l.117 -.007a1 1 0 0 0 .883 -.993l-.007 -.117a1 1 0 0 0 -.993 -.883h-1v-2l-.007 -.117a1 1 0 0 0 -.993 -.883z"/><path d="M6.412 3.191a1 1 0 0 1 1.273 1.539l-.097 .08l-2.75 2a1 1 0 0 1 -1.273 -1.54l.097 -.08l2.75 -2z"/><path d="M16.191 3.412a1 1 0 0 1 1.291 -.288l.106 .067l2.75 2a1 1 0 0 1 -1.07 1.685l-.106 -.067l-2.75 -2a1 1 0 0 1 -.22 -1.397z"/></svg>

<svg xmlns="http://www.w3.org/2000/svg" width="24" height="24" fill="currentColor"><path d="M16 6.072a8 8 0 1 1-11.995 7.213L4 13l.005-.285A8 8 0 0 1 16 6.072M12 9a1 1 0 0 0-1 1v3l.007.117A1 1 0 0 0 12 14h2l.117-.007A1 1 0 0 0 15 13l-.007-.117A1 1 0 0 0 14 12h-1v-2l-.007-.117A1 1 0 0 0 12 9"/><path d="M6.412 3.191A1 1 0 0 1 7.685 4.73l-.097.08-2.75 2a1 1 0 0 1-1.273-1.54l.097-.08 2.75-2zM16.191 3.412a1 1 0 0 1 1.291-.288l.106.067 2.75 2a1 1 0 0 1-1.07 1.685l-.106-.067-2.75-2a1 1 0 0 1-.22-1.397z"/></svg>
